img/konsumen/icon/phone.svg

<svg width="24" height="24" viewBox="0 0 24 24" fill="none" xmlns="http://www.w3.org/2000/svg">
<path d="M5.00019 9.8605C6.91659 14.0344 10.3266 17.3529 14.5661 19.1519L15.2457 19.4547C16.8005 20.1474 18.6283 19.6211 19.5766 18.2076L20.4647 16.8839C20.7535 16.4536 20.6656 15.8739 20.2622 15.5485L17.2503 13.1187C16.808 12.7618 16.1574 12.8449 15.819 13.3016L14.8873 14.5589C12.4965 13.3795 10.5554 11.4385 9.37609 9.04765L10.6333 8.11593C11.09 7.77751 11.1731 7.12699 10.8162 6.68461L8.38637 3.67267C8.06103 3.26939 7.48152 3.18142 7.05116 3.46999L5.71832 4.36368C4.29597 5.31739 3.77259 7.16024 4.48132 8.71919L4.99941 9.85881L5.00019 9.8605Z" fill="black"/>
</svg>

<svg xmlns="http://www.w3.org/2000/svg" fill="none" viewBox="0 0 24 24"><path fill="#000" d="M5 9.86a18.466 18.466 0 0 0 9.566 9.292l.68.303a3.5 3.5 0 0 0 4.33-1.247l.889-1.324a1 1 0 0 0-.203-1.335l-3.012-2.43a1 1 0 0 0-1.431.183l-.932 1.257a12.14 12.14 0 0 1-5.51-5.511l1.256-.932a1 1 0 0 0 .183-1.431l-2.43-3.012a1 1 0 0 0-1.335-.203l-1.333.894a3.5 3.5 0 0 0-1.237 4.355L5 9.86 5 9.86z"/></svg>
